icons/ellipsis.svg

<svg xmlns="http://www.w3.org/2000/svg" width="24" height="24"><path d="M3 9c-1.654 0-3 1.346-3 3s1.346 3 3 3 3-1.346 3-3-1.346-3-3-3zm0 5c-1.103 0-2-.897-2-2s.897-2 2-2 2 .897 2 2-.897 2-2 2zm9-5c-1.654 0-3 1.346-3 3s1.346 3 3 3 3-1.346 3-3-1.346-3-3-3zm0 5c-1.103 0-2-.897-2-2s.897-2 2-2 2 .897 2 2-.897 2-2 2zm9-5c-1.654 0-3 1.346-3 3s1.346 3 3 3 3-1.346 3-3-1.346-3-3-3zm0 5c-1.103 0-2-.897-2-2s.897-2 2-2 2 .897 2 2-.897 2-2 2z"/></svg>

<?xml version="1.0" encoding="utf-8"?>
<!-- Generator: Adobe Illustrator 16.0.0, SVG Export Plug-In . SVG Version: 6.00 Build 0)  -->
<!DOCTYPE svg PUBLIC "-//W3C//DTD SVG 1.1//EN" "http://www.w3.org/Graphics/SVG/1.1/DTD/svg11.dtd">
<svg version="1.1" id="Outline_Icons" xmlns="http://www.w3.org/2000/svg" xmlns:xlink="http://www.w3.org/1999/xlink" x="0px"
	 y="0px" width="24px" height="24px" viewBox="0 0 24 24" enable-background="new 0 0 24 24" xml:space="preserve">
<g>
	<path d="M3,9c-1.654,0-3,1.346-3,3s1.346,3,3,3s3-1.346,3-3S4.654,9,3,9z M3,14c-1.103,0-2-0.897-2-2s0.897-2,2-2s2,0.897,2,2
		S4.103,14,3,14z"/>
	<path d="M12,9c-1.654,0-3,1.346-3,3s1.346,3,3,3s3-1.346,3-3S13.654,9,12,9z M12,14c-1.103,0-2-0.897-2-2s0.897-2,2-2s2,0.897,2,2
		S13.103,14,12,14z"/>
	<path d="M21,9c-1.654,0-3,1.346-3,3s1.346,3,3,3s3-1.346,3-3S22.654,9,21,9z M21,14c-1.103,0-2-0.897-2-2s0.897-2,2-2s2,0.897,2,2
		S22.103,14,21,14z"/>
</g>
</svg>
